icons/drone.svg

<?xml version="1.0" encoding="UTF-8"?>
<svg width="256px" height="256px" viewBox="0 0 256 256" version="1.1" xmlns="http://www.w3.org/2000/svg" xmlns:xlink="http://www.w3.org/1999/xlink" preserveAspectRatio="xMidYMid">
    <g>
        <path d="M51.0914,28.4867396 L49.823023,29.6398096 L94.21622,73.4564716 C87.6818127,84.0134009 84.282702,96.21021 84.4151246,108.625108 C83.8872121,125.508546 90.4106839,141.849869 102.420358,153.72829 C114.430033,165.606711 130.842053,171.950219 147.71867,171.236812 C160.249159,171.422392 172.571526,168.021739 183.233228,161.435717 L227.857039,205.828914 C203.819009,237.231007 166.392391,255.474347 126.848102,255.065005 C93.3193914,255.560086 60.9978276,242.56249 37.1463425,218.992886 C13.2948574,195.423282 -0.0860600048,163.258518 0.0103967069,129.72629 C-0.534916186,89.6588351 18.5393625,51.8547343 51.0914,28.4867396 L51.0914,28.4867396 Z M75.8824062,11.5366098 C92.8613809,3.82327 111.312865,-0.110948411 129.961392,0.00590927948 C163.369779,-0.334114722 195.518721,12.7395618 219.208173,36.2989715 C242.897625,59.8583812 256.148069,91.9348714 255.991948,125.344624 C256.189243,144.038403 252.25174,162.544667 244.461248,179.538916 L204.680331,139.758 C211.093382,129.359904 214.486954,117.38259 214.481426,105.165898 C215.173991,88.1536271 208.711076,71.6286539 196.660669,59.6001576 C184.610263,47.5716613 168.073556,41.1388292 151.062574,41.8623522 C138.837376,41.7949255 126.843339,45.1932359 116.470472,51.6634476 L75.8824062,11.5366098 L75.8824062,11.5366098 Z M151.754416,141.256991 C141.670007,141.608616 131.886384,137.788969 124.707791,130.697654 C117.529198,123.606339 113.590164,113.870169 113.818411,103.782214 C113.427369,93.5957376 117.294522,83.7062497 124.491808,76.487088 C131.689093,69.2679262 141.566799,65.3707774 151.754416,65.7309023 C161.892764,65.5057052 171.6795,69.4500389 178.828335,76.6424643 C185.977169,83.8348897 189.861937,93.6454218 189.575113,103.782214 C189.968314,113.928324 186.110059,123.77832 178.93029,130.958088 C171.750521,138.137857 161.900526,141.996112 151.754416,141.602912 L151.754416,141.256991 L151.754416,141.256991 Z" fill="#00ABE4"></path>
    </g>
</svg>

<svg xmlns="http://www.w3.org/2000/svg" viewBox="0 0 256 255.079">
  <path fill="#00abe4" d="m51.092 28.487-1.268 1.153 44.393 43.817a65.494 65.494 0 0 0-9.8 35.169 60.767 60.767 0 0 0 63.303 62.611 65.725 65.725 0 0 0 35.514-9.8l44.624 44.392a125.57 125.57 0 0 1-101.009 49.237A124.993 124.993 0 0 1 .011 129.726 122.571 122.571 0 0 1 51.092 28.488zm24.791-16.95a128.798 128.798 0 0 1 54.08-11.53 124.762 124.762 0 0 1 126.03 125.338c.197 18.694-3.74 37.2-11.53 54.194l-39.782-39.78a65.84 65.84 0 0 0 9.801-34.593 60.882 60.882 0 0 0-63.418-63.303 64.687 64.687 0 0 0-34.593 9.801zm75.872 129.72a36.668 36.668 0 0 1-37.936-37.474 36.668 36.668 0 0 1 37.936-38.052 37.014 37.014 0 0 1 37.821 38.052 36.437 36.437 0 0 1-37.82 37.82z"/>
</svg>
